dist/svgs/unicons/line/package.svg

<svg xmlns="http://www.w3.org/2000/svg" viewBox="0 0 24 24"><path d="M19 2H5a3 3 0 00-3 3v14a3 3 0 003 3h14a3 3 0 003-3V5a3 3 0 00-3-3zm-9 2h4v3.13l-1.45-1a1 1 0 00-1.1 0l-1.45 1zm10 15a1 1 0 01-1 1H5a1 1 0 01-1-1V5a1 1 0 011-1h3v5a1 1 0 00.53.88 1 1 0 001-.05L12 8.2l2.45 1.63A1 1 0 0016 9V4h3a1 1 0 011 1z"/></svg>

<svg xmlns="http://www.w3.org/2000/svg" viewBox="0 0 24 24"><path d="M19,2H5A3,3,0,0,0,2,5V19a3,3,0,0,0,3,3H19a3,3,0,0,0,3-3V5A3,3,0,0,0,19,2ZM10,4h4V7.13l-1.45-1a1,1,0,0,0-1.1,0L10,7.13ZM20,19a1,1,0,0,1-1,1H5a1,1,0,0,1-1-1V5A1,1,0,0,1,5,4H8V9a1,1,0,0,0,.53.88,1,1,0,0,0,1-.05L12,8.2l2.45,1.63A1,1,0,0,0,16,9V4h3a1,1,0,0,1,1,1Z"/></svg>
